X:1
T:Domine, non secundum
T:Thomas Stoltzer
T:Source : Bicinia---Tomus I---Wittemberg---G.Rhau---1545. Editor : André Vierendeels (16/06/17).
T:Notes : Original clefs : G2, C3 Original note values have been halved Editorial accidentals above the staff Square brackets indicate ligatures Dotted brackets indicate black notes
T:Domine, non secundum 
T:©
T:©
C:Thomas Stoltzer
Z:©
%%score [ 1 2 ]
L:1/8
Q:1/4=120
M:4/4
K:C
V:1 treble nm="Soprano" snm="S"
V:2 treble nm="Alto" snm="A"
V:1
 z2 A4 B2 | c4 A2 B2 | c2 A2 B2 c2 | A3 B c4 | A2 B2 c4 | z2 d4 c2 | d4 c2 d2 | A8- | A4 z2 c2 | %9
w: Do- mi-||||* * ne,|non se-|cun- * *|dum|_ pec-|
 d2 e2 A4- | A4 z2 c2 | d2 e2 A4 | z2 c4 A2 | B2 c2 d2 cB | A4 G4 | z2 A3 G AB | c2 A2 A4 | %17
w: ca- * ta,|_ pec-|ca- * ta|no- *||stra, _|fa- * * *|* ci- as,|
 z2 A2 G2 A2- | AB c2 d2 B2 | c2 d2 c4 | z2 G2 c2 A2 | d4 z2 A2 | B4 A4 | z2 d2 d2 d2 | d4 f4 | %25
w: no- * *||* * bis|ne- * *|que se-|cun- dum|in- i- qui-|ta- *|
 d2 f2 e2 d2- | dc A2 _B2 A2 | G3 B A F2 E | F2 A2 G4 | z2 c2 dc f2- | f2 e2 f2 e2 | d4 c4 | %32
w: tes no- * *|||* * stras,|re- tri- * *||bu- as|
 z2 c2 B2 A2 | c2 B2 A2 fe | df e3 d cB | A4 z2 A2- | A2 G2 A3 B | cA d2 d2 c2 | B2 A2 B4 | A8 |] %40
w: no- * *|||bis, [no-||||bis].|
V:2
 D4 C2 D2 | C2 A,2 C2 D2 | C2 D4 C2 | D2 F4 E2 | F2 D2 E2 F2- | FEFD E4 | D4 z2 D2- | D2 C2 D4 | %8
w: Do- mi- *||||||ne, non|_ se- cun-|
 C2 D2 C2 A,2 | z2 C2 DCDE | F4 F4- | F2 E2 F4 | D2 E2 F4 | G2 FE D4 | C4 z2 E2 | F2 D2 D4 | %16
w: * * * dum|pec- * * * *|ca- ta|_ _ _|no- * *||stra fa-|* ci- as|
 z2 D2 C2 D2- | DE F2 G2 F2- | F2 E2 F2 G2 | F4 z2 C2- | C2 E4 F2- | F2 D2 D4 | D4 z2 D2 | %23
w: no- * *|||bis, nec-|* que se-|* * cun-|dum in-|
 D2 D2 D4 | F4 D4 | z2 D2 C2 D2- | DE F2 G2 F2- | F2 E2 F2 G2 | F4 z2 C2 | F2 E2 F4 | G4 F2 C2 | %31
w: i- qui- ta-|* tes|no- * *|||stras, re-|tri- * *||
 DC F4 E2 | F4 z2 F2 | E2 D2 D3 C | D2 C2 A,4 | z2 D4 C2 | D2 E2 F4- | F2 ED E4 | D8- | D8 |] %40
w: * * * bu-|as no-||* * bis,|no- *|||bis.|_|

